X: 39201
T: Swiss Piper
R: reel
M: 4/4
K: Amixolydian
|:~A3c Acec|~G2BG dGBd|~A2cA eAce|gedB G2dB|
A2cA eAce|G2eG dGBG|Acef ~g3B|1 G2eG dGBG:|2 eBdB degb||
|:a2e~a a2ce|g2dg egdg|aecA cBce|g2dB GABd|
a~e3 aece|g2eg dg (3Bcd|Acef gedB|1 e2dB ABce:|2 GA (3BAG A2E2||

